X: 1
T: a Mabou Strathspey on D
O: learned by John Campbell from his father)
R: strathspey
Z: 2021 John Chambers <jc:trillian.mit.edu>
S: handout for Anne Hooper's 2021-5-2 zoom session (handwritten)
M: C
L: 1/8
K: D
B | "D"A<Bd>e "(F#)"d<BA>F | "Em"E>FG>A "A"B<EE>B | "D"A<Bd>e "G"d>BA>F | "A7"A>Bd>e "D"f<dd  :|
e | "D"f<ef<g  "(A)"a>ba>f |  "D"d>ef>a "A"b<ee>f | "D"d>ef>g "G"a<ba>f | "A7"e<fd>e "D"f<dd>e |
  | "D"d<ef>g  "(A)"a<ba>f |  "D"d>ef>a "A"b<ee>g | "D"f<de<f "G"d>BA>F | "A7"A>Bd>e "D"f<dd  |]
